X: 213
T: Jieme guandeng
%%abc-version 2.0
%%abcx-abcm2ps-target-version 5.9.1 (29 Sep 2008)
%%abc-creator hum2abc beta
%%abcx-conversion-date 2013/10/02 07:52:29
%%abc-edited-by Helmut Schaffrath
%%humdrum-veritas 3238561233
%%humdrum-veritas-data 3577020695
%%continueall 1
%%barnumbers 0
L: 1/8
M: 2/4
K: Bb
z f f f [I:setbarnb 1]| 
f'> f' c'/ d'/ c'- | 
c' f' d'/ f'/ d'/ c'/ | 
bb3 | 
z f f f | 
f'> f' c'/ d'/ c'- | 
c' f' d'/ f'/ d'/ c'/ | 
bb3 | 
d' d' d'/ c'/ b | 
f' g f/ g/ f- | 
fb2g | 
f2b f/ g/ | 
b2d f | 
d c B c | 
B4 |]  



